svg/300/outlined/diagnosis-fill.svg

<svg xmlns="http://www.w3.org/2000/svg" width="48" height="48" viewBox="0 -960 960 960"><path d="M330.001-232.694h299.998v-45.384H330.001v45.384Zm0-112.307h299.998v-45.384H330.001v45.384ZM480-480.154q62.461-56.076 102.577-91.845 40.115-35.769 40.115-84.615 0-29.308-20.692-50-20.693-20.692-50-20.692-26.923 0-41.385 11.231Q496.154-704.844 480-684.69q-16.154-20.154-30.615-31.385-14.462-11.231-41.385-11.231-29.307 0-50 20.692-20.692 20.692-20.692 50 0 48.846 38.808 83.115Q414.923-539.23 480-480.154Zm242.306 380.153H237.694q-23.616 0-40.654-17.039-17.039-17.038-17.039-40.654v-644.612q0-23.616 17.039-40.654 17.038-17.039 40.654-17.039h484.612q23.616 0 40.654 17.039 17.039 17.038 17.039 40.654v644.612q0 23.616-17.039 40.654-17.038 17.039-40.654 17.039Z"/></svg>

<svg xmlns="http://www.w3.org/2000/svg" width="48" height="48" viewBox="0 -960 960 960"><path d="M330-232.69h300v-45.39H330v45.39ZM330-345h300v-45.38H330V-345Zm150-135.15q62.46-56.08 102.58-91.85 40.11-35.77 40.11-84.61 0-29.31-20.69-50-20.69-20.7-50-20.7-26.92 0-41.38 11.23-14.47 11.24-30.62 31.39-16.15-20.15-30.62-31.39-14.46-11.23-41.38-11.23-29.31 0-50 20.7-20.69 20.69-20.69 50 0 48.84 38.81 83.11 38.8 34.27 103.88 93.35ZM722.31-100H237.69q-23.61 0-40.65-17.04T180-157.69v-644.62q0-23.61 17.04-40.65T237.69-860h484.62q23.61 0 40.65 17.04T780-802.31v644.62q0 23.61-17.04 40.65T722.31-100Z"/></svg>
